X: 225
T: Bağ-ı Hüsnünde
C: Dede Salih Efendi
O: Turkey
F: http://compmusic.upf.edu/node/140
N: huzzam--sarki--agirduyek--bag-i_husnunde--dede_salih_efendi
N: makam= huzzam
N: form= sarki
N: usul= agirduyek = 8/4
M: 8/4
L: 1/16
K: C _1/4B _3/4e ^3/4f 
Q: 1/4=66
%%MIDI tuningsystem comma53
z4 B4 B4 d4 c2d_1/4e d2c2 B2A2 G4  | \
w:   | 
G4 B2c2 d4 c2B2 _7/8ede^f e2d2 d8  | 
w:   | 
z4 d2_7/8e2 d4 ^f4 g4 f2e2 f4 e2d2  | \
w:   | 
d3^f _7/8e2d2 (3d2c2B2 c2d2 c4 d4 d8  | 
w:   | 
z4 g8 ^f4 g2a2 g2f2 f_7/8ede f4  | \
w:   | 
^f4 d2_7/8e2 f2g2 a4 f2ga g2f2 f2e2 d4  | 
w:   | 
z4 d4 ^f4 _7/8e2d2 d2c2 B4 gfga g2f2  | \
w:   | 
_1/4e2d4e2 d2c2 c2B2 B6g2 ^f2^e2 f4  | 
w:   | 
z4 ^f8 =e2f2 gfga g2f2 f2_7/8e2 d4  | \
w:   | 
^f4 g8 f2g2 a4 g2f2 _7/8e2d2 e4  | 
w:   | 
z4 d2_7/8e2 d4 ^f4 g4 f2e2 f4 e2d2  | \
w:   | 
d3^f _7/8e2d2 (3d2c2B2 c2d2 c4 d4 d8  | 
w:   | 
z4 g8 ^f4 g2a2 g2f2 f_7/8ede f4  | \
w:   | 
^f4 d2_7/8e2 f2g2 a4 f2ga g2f2 f2e2 d4  | 
w:   | 
d4 d4 ^f4 _7/8e2d2 d2c2 B4 gfga g2f2  | \
w:   | 
_1/4e2d4e2 d2c2 c2B2 B8 B8  | 
w:   | 
z4 B2c2 d4 _1/4e4 c4 d4 B3A G4  | \
w:   | 
z4 B2c2 d4 _7/8e2d2 a3g ^f2e2 def4ed  | 
w:   | 
d6_7/8e2 d4 c4 d2^f2 e2d2 g4 f2e2  | \
w:   | 
d4 c2B2 A2B2 d2c2 B2^A2 B8 z4  | 
w:   | 
B2c2 d4 _1/4e4 c4 d4 B3A G4 z4  | \
w:   | 
B2c2 d4 _7/8e2d2 a3g ^f2e2 def4ed d6e2 d4 c4 d2f2 e2d2 g4 f2e2 d4  | 
w:   | 
c2B2 A2B2 d2c2 B2^A2 B8 z4 B4  | B4 d4 c2d_1/4e d2c2 B2A2 G4 G4 B2c2  | 
w:   |   | 
d4 c2B2 _7/8ede^f e2d2 d8 z4 d2e2  | \
w:   | 
d4 ^f4 g4 f2_7/8e2 f4 e2d2 d3f e2d2  | 
w:   | 
(3d2c2B2 c2d2 c4 d4 d8 z4 g8 ^f4 g2a2 g2f2 f_7/8ede f4 f4 d2e2  | 
w:   | 
^f2g2 a4 f2ga g2f2 f2_7/8e2 d4 z4 d4  | \
w:   | 
^f4 _7/8e2d2 d2c2 B4 gfga g2f2 _1/4e2d4e2  | 
w:   | 
d2c2 c2B2 B6g2 ^f2^e2 f4 z4 f8 =e2f2 gfga g2f2 f2_7/8e2 d4 f4 g8 f2g2 a4 g2f2 e2d2 e4 z4 d2e2  | 
w:   | 
d4 ^f4 g4 f2_7/8e2 f4 e2d2 d3f e2d2  | \
w:   | 
(3d2c2B2 c2d2 c4 d4 d8 z4 g8 ^f4 g2a2 g2f2 f_7/8ede f4 f4 d2e2  | 
w:   | 
^f2g2 a4 f2ga g2f2 f2_7/8e2 d4 d4 d4  | \
w:   | 
^f4 _7/8e2d2 d2c2 B4 gfga g2f2 _1/4e2d4e2  | 
w:   | 
d2c2 c2B2 B8 B8 |
w:   | 


